assets/svgs/misc-grey/MiscGrey85.svg

<svg width="32" height="44" viewBox="0 0 32 44" fill="none" xmlns="http://www.w3.org/2000/svg">
<path fill-rule="evenodd" clip-rule="evenodd" d="M9.69002 9.847L14.381 5.156V20.911C14.381 21.739 15.053 22.411 15.881 22.411C16.71 22.411 17.381 21.739 17.381 20.911V5.158L22.069 9.847C22.362 10.14 22.746 10.286 23.13 10.286C23.514 10.286 23.897 10.14 24.19 9.847C24.776 9.261 24.776 8.312 24.19 7.726L16.94 0.475999C16.354 -0.110001 15.405 -0.110001 14.819 0.475999L7.56902 7.726C6.98302 8.312 6.98302 9.261 7.56902 9.847C8.15502 10.433 9.10402 10.433 9.69002 9.847Z" fill="#1A1919"/>
<path fill-rule="evenodd" clip-rule="evenodd" d="M31.694 17.138C31.613 15.65 30.548 13.438 27.948 13.438C27.947 13.438 27.946 13.438 27.946 13.438H22.946C22.118 13.438 21.446 14.109 21.446 14.938C21.446 15.766 22.118 16.438 22.946 16.438H27.947C28.397 16.438 28.65 16.735 28.696 17.229C28.698 17.417 28.82 36.006 28.698 38.753C28.684 39.063 28.643 40.003 27.471 40.003C27.46 40.003 27.448 40.003 27.437 40.003C27.232 40.004 6.95304 40.134 4.52604 40.005C3.49504 39.95 3.34204 38.816 3.32104 38.552V17.354C3.32104 17.114 3.35404 16.796 3.51104 16.642C3.67304 16.482 3.98704 16.429 4.19604 16.438H8.19604C9.02505 16.438 9.69604 15.767 9.69604 14.938C9.69604 14.11 9.02505 13.438 8.19604 13.438L4.28104 13.44C4.10905 13.435 2.59605 13.38 1.45704 14.456C0.938045 14.945 0.321045 15.846 0.321045 17.354L0.323045 38.618C0.387045 40.063 1.31404 42.838 4.36604 43.001C5.22904 43.047 8.11704 43.063 11.57 43.063C18.186 43.063 26.875 43.006 27.37 43.001C27.547 43.008 29.14 43.058 30.378 41.933C30.94 41.422 31.624 40.479 31.695 38.886C31.82 36.063 31.701 17.979 31.694 17.138Z" fill="#1A1919"/>
</svg>

<svg xmlns="http://www.w3.org/2000/svg" fill="none" viewBox="0 0 32 44"><path fill="#1A1919" fill-rule="evenodd" d="M9.69 9.847l4.691-4.691v15.755a1.5 1.5 0 003 0V5.158l4.688 4.689c.293.293.677.439 1.061.439a1.5 1.5 0 001.06-2.56L16.94.476a1.5 1.5 0 00-2.121 0l-7.25 7.25A1.5 1.5 0 109.69 9.847z" clip-rule="evenodd"/><path fill="#1A1919" fill-rule="evenodd" d="M31.694 17.138c-.081-1.488-1.146-3.7-3.746-3.7h-5.002a1.5 1.5 0 100 3h5.001c.45 0 .703.297.749.791.002.188.124 18.777.002 21.524-.014.31-.055 1.25-1.227 1.25h-.034c-.205.001-20.484.131-22.911.002-1.031-.055-1.184-1.189-1.205-1.453V17.354c0-.24.033-.558.19-.712.162-.16.476-.213.685-.204h4a1.5 1.5 0 100-3l-3.915.002c-.172-.005-1.685-.06-2.824 1.016-.519.489-1.136 1.39-1.136 2.898l.002 21.264c.064 1.445.991 4.22 4.043 4.383.863.046 3.751.062 7.204.062 6.616 0 15.305-.057 15.8-.062.177.007 1.77.057 3.008-1.068.562-.511 1.246-1.454 1.317-3.047.125-2.823.006-20.907-.001-21.748z" clip-rule="evenodd"/></svg>
